// SHADER NOT MADE BY ME, ORIGINAL SHADER FOUND HERE
// https://godotshaders.com/shader/simple-circle-transition-2/
shader_type canvas_item;
render_mode unshaded;
uniform float circle_size : hint_range(0.0, 1.05);
uniform float screen_width;
uniform float screen_height;
void fragment() {
	float ratio = screen_width / screen_height;
	float dist = distance(vec2(0.5, 0.5), vec2(mix(0.5, UV.x, ratio), UV.y));
	COLOR.a = step(circle_size, dist) * COLOR.a;
}